usr/share/icons/biglinux-icons-material-dark/22/actions/align-horizontal-center.svg

<svg xmlns="http://www.w3.org/2000/svg" viewBox="0 0 22 22">
  <defs id="defs3051">
    <style type="text/css" id="current-color-scheme">
      .ColorScheme-Text {
        color:#dedede;
      }
      </style>
  </defs>
 <path 
     style="fill:currentColor;fill-opacity:1;stroke:none" 
 d="m10.5 3v1h-2.5v1 3 1h2.5v4h-5.5v1 4h1 4.5v1h1v-1h5.5v-1-3-1h-5.5v-4h1.5 1v-1-3-1h-1-1.5v-1h-1m-1.5 2h4v3h-4v-3m-3 9h10v3h-10v-3"
	 class="ColorScheme-Text"
     />
</svg>

<svg xmlns="http://www.w3.org/2000/svg" viewBox="0 0 22 22">
<defs id="defs3051">
<style id="current-color-scheme" type="text/css">
.ColorScheme-Text{color:#dedede}
</style>
</defs>
<path d="M10.5 3v1H8v5h2.5v4H5v5h5.5v1h1v-1H17v-5h-5.5V9H14V4h-2.5V3zM9 5h4v3H9zm-3 9h10v3H6z" class="ColorScheme-Text" style="fill:currentColor;fill-opacity:1;stroke:none"/>
</svg>
